ui/src/assets/logo.svg

<?xml version="1.0" encoding="UTF-8"?>
<svg width="638px" height="190px" viewBox="0 0 638 190" version="1.1" xmlns="http://www.w3.org/2000/svg" xmlns:xlink="http://www.w3.org/1999/xlink">
    <!-- Generator: Sketch 51.2 (57519) - http://www.bohemiancoding.com/sketch -->
    <title>Logo</title>
    <desc>Created with Sketch.</desc>
    <defs></defs>
    <g id="Logo" stroke="none" stroke-width="1" fill="none" fill-rule="evenodd">
        <text id="Imannotate" font-family="TheodonisVilla-Regular, Theodonis Villa" font-size="120" font-weight="normal" fill="#3B80FF">
            <tspan x="38.4" y="133">Imannotate</tspan>
        </text>
        <g id="Group" transform="translate(15.000000, 12.000000)" fill-rule="nonzero" stroke="#1BBA96" stroke-width="9">
            <path d="M145,120.042072 L145,30.0080809 C140.79507,29.8036427 137.404325,28.4777774 134.827766,26.030485 C132.251207,23.5831927 130.463503,19.9063643 129.464655,15 L30.2242685,15 C29.5287804,19.7893905 27.9184493,23.4662189 25.393275,26.030485 C22.8681007,28.5947512 19.4036757,29.9206165 15,30.0080809 L15,129.65688 C19.365593,130.14891 22.830018,131.644151 25.393275,134.142603 C27.956532,136.641056 29.5668631,140.260188 30.2242685,145 L119.20952,145" id="Square"></path>
            <circle id="Oval-up-left" cx="15" cy="15" r="15"></circle>
            <circle id="Oval-bottom-left" cx="15" cy="145" r="15"></circle>
            <circle id="Oval-up-right" cx="145" cy="15" r="15"></circle>
            <g id="+-sign" transform="translate(125.000000, 125.000000)">
                <path d="M0,20 L40,20" id="Path-3"></path>
                <path d="M0,20 L40,20" id="Path-3-Copy" transform="translate(20.000000, 20.000000) rotate(90.000000) translate(-20.000000, -20.000000) "></path>
            </g>
        </g>
    </g>
</svg>

<svg viewBox="0 0 638 190" xmlns="http://www.w3.org/2000/svg"><g fill="none" fill-rule="evenodd"><text fill="#3b80ff" font-family="TheodonisVilla-Regular, Theodonis Villa" font-size="120"><tspan x="38.4" y="133">Imannotate</tspan></text><g fill-rule="nonzero" stroke="#1bba96" stroke-width="9" transform="translate(15 12)"><path d="m145 120.04v-90.034c-4.2049-.20444-7.5957-1.5303-10.172-3.9776-2.5766-2.4473-4.3643-6.1241-5.3631-11.03h-99.24c-.69549 4.7894-2.3058 8.4662-4.831 11.03-2.5252 2.5643-5.9896 3.8901-10.393 3.9776v99.649c4.3656.49203 7.83 1.9873 10.393 4.4857 2.5633 2.4985 4.1736 6.1176 4.831 10.857h88.985"/><circle cx="15" cy="15" r="15"/><circle cx="15" cy="145" r="15"/><circle cx="145" cy="15" r="15"/><g transform="translate(125 125)"><path d="m0 20h40"/><path d="m0 20h40" transform="matrix(0 1 -1 0 40 0)"/></g></g></g></svg>
